svgs/nonogramm_katana.svg

<svg width="192" height="192" viewBox="0 0 192 192" fill="none" xmlns="http://www.w3.org/2000/svg">
<path d="M23.2712 155.421C23.2712 157.099 23.7906 158.737 24.758 160.108C25.7254 161.479 27.0935 162.518 28.6746 163.081" stroke="black" stroke-width="8" stroke-miterlimit="6" stroke-linecap="round" stroke-linejoin="round"/>
<path d="M60.5178 136.8V64.5791L140.704 64.579" stroke="black" stroke-width="8" stroke-miterlimit="6" stroke-linecap="round" stroke-linejoin="round"/>
<path d="M23.5542 139.165C23.5542 137.009 24.4108 134.941 25.9357 133.416C27.4605 131.891 29.5286 131.035 31.6851 131.035C33.8415 131.035 35.9096 131.891 37.4345 133.416C38.9593 134.941 39.816 137.009 39.816 139.165C39.816 140.233 39.6057 141.29 39.197 142.277C38.7884 143.263 38.1895 144.16 37.4345 144.915C36.6795 145.67 35.7831 146.269 34.7966 146.677C33.8102 147.086 32.7528 147.296 31.6851 147.296" stroke="black" stroke-width="8" stroke-miterlimit="6" stroke-linecap="round" stroke-linejoin="round"/>
<path d="M101.396 161.91L82.8843 143.236" stroke="black" stroke-width="8" stroke-miterlimit="6" stroke-linecap="round" stroke-linejoin="round"/>
<path d="M100.53 137.58L77.2705 161.044" stroke="black" stroke-width="8" stroke-miterlimit="6" stroke-linecap="round" stroke-linejoin="round"/>
<path d="M162.718 128.098H124.03V166.786H162.718V128.098Z" stroke="black" stroke-width="8" stroke-miterlimit="6" stroke-linecap="round" stroke-linejoin="round"/>
<path d="M25.6738 84.3964L34.2394 77.0792V104.681" stroke="black" stroke-width="8" stroke-miterlimit="6" stroke-linecap="round" stroke-linejoin="round"/>
<path d="M80.55 27.5305L89.1156 20.2133V47.8157" stroke="black" stroke-width="8" stroke-miterlimit="6" stroke-linecap="round" stroke-linejoin="round"/>
<path d="M133.342 28.7069C133.342 26.8536 133.948 25.0512 135.067 23.5744C136.187 22.0975 137.759 21.0273 139.543 20.5269C141.327 20.0264 143.227 20.1232 144.951 20.8024C146.675 21.4816 148.13 22.706 149.094 24.289C150.057 25.872 150.477 27.7266 150.289 29.5703C150.1 31.414 149.314 33.1455 148.05 34.5008" stroke="black" stroke-width="8" stroke-miterlimit="6" stroke-linecap="round" stroke-linejoin="round"/>
<path d="M147.775 34.8071L134.053 47.8157H150.513" stroke="black" stroke-width="8" stroke-miterlimit="6" stroke-linecap="round" stroke-linejoin="round"/>
<path d="M20.5042 172H37.9822C37.9822 172 45.7809 172.324 53.176 167.141C60.5712 161.959 139.339 89.3716 139.339 89.3716L128.364 78.5752L20.5042 172Z" stroke="black" stroke-width="8" stroke-miterlimit="6" stroke-linecap="round" stroke-linejoin="round"/>
<path d="M134.269 95.0954C134.269 95.0954 140.759 103.716 147.356 97.5476C154.164 91.1824 148.058 85.0596 148.058 85.0596L131.127 68.2795C131.127 68.2795 125.766 62.852 119.959 68.916C114.153 74.9799 120.688 80.8827 120.688 80.8827" stroke="black" stroke-width="8" stroke-miterlimit="6" stroke-linecap="round" stroke-linejoin="round"/>
<path d="M146.953 81.9748L172.087 56.0263L160.829 45.1011L135.311 71.5011" stroke="black" stroke-width="8" stroke-miterlimit="6" stroke-linecap="round" stroke-linejoin="round"/>
<path d="M164.038 64.579H172" stroke="black" stroke-width="8" stroke-miterlimit="6" stroke-linecap="round" stroke-linejoin="round"/>
<path d="M39.522 154.995C39.4156 152.964 38.5519 151.047 37.1013 149.621C35.6507 148.196 33.7186 147.366 31.686 147.295" stroke="black" stroke-width="8" stroke-miterlimit="6" stroke-linecap="round" stroke-linejoin="round"/>
<path d="M85.2531 114.459H72.6434L72.6428 76.6313H110.423V93.0784" stroke="black" stroke-width="8" stroke-miterlimit="6" stroke-linecap="round" stroke-linejoin="round"/>
</svg>

<svg width="192" height="192" fill="none" xmlns="http://www.w3.org/2000/svg"><path d="M23.271 155.421a8.131 8.131 0 0 0 5.404 7.66M60.518 136.8V64.58l80.186-.001M23.554 139.165a8.13 8.13 0 1 1 8.131 8.131M101.396 161.91l-18.512-18.674M100.53 137.58l-23.26 23.464M162.718 128.098H124.03v38.688h38.688v-38.688ZM25.674 84.396l8.565-7.317v27.602M80.55 27.53l8.566-7.317v27.603M133.342 28.707a8.499 8.499 0 0 1 6.201-8.18A8.496 8.496 0 0 1 148.05 34.5M147.775 34.807l-13.722 13.009h16.46M20.504 172h17.478s7.799.324 15.194-4.859c7.395-5.182 86.163-77.77 86.163-77.77l-10.975-10.796L20.504 172Z" stroke="#000" stroke-width="8" stroke-miterlimit="6" stroke-linecap="round" stroke-linejoin="round"/><path d="M134.269 95.095s6.49 8.621 13.087 2.453c6.808-6.366.702-12.488.702-12.488l-16.931-16.78s-5.361-5.428-11.168.636c-5.806 6.064.729 11.967.729 11.967M146.953 81.975l25.134-25.949-11.258-10.925-25.518 26.4M164.038 64.579H172M39.522 154.995a8.132 8.132 0 0 0-7.836-7.7M85.253 114.459h-12.61V76.631h37.78v16.447" stroke="#000" stroke-width="8" stroke-miterlimit="6" stroke-linecap="round" stroke-linejoin="round"/></svg>
